src/assets/images/free-demat-compaign/stocks.svg

<svg width="49" height="41" viewBox="0 0 49 41" fill="none" xmlns="http://www.w3.org/2000/svg">
<path d="M38.8071 3.76256C38.1727 3.12871 37.5787 2.53532 36.9848 1.95542C36.6744 1.65872 36.4989 1.33505 36.6879 0.916981C36.8498 0.525882 37.2008 0.431479 37.6057 0.417993C40.6968 0.283131 43.8013 0.148269 46.8924 0.0134076C47.7562 -0.0270509 48.0397 0.242673 47.9992 1.0923C47.8642 4.22109 47.7157 7.34989 47.5808 10.4652C47.5673 10.8698 47.4323 11.1934 47.0273 11.3418C46.6494 11.4767 46.3389 11.3283 46.069 11.0586C45.2321 10.209 44.3817 9.37281 43.5179 8.5097C41.4122 10.0876 39.347 11.6385 37.2683 13.1894C31.1132 17.8017 24.9581 22.4139 18.803 27.0397C18.7086 27.1071 18.6141 27.1881 18.5196 27.2555C17.9527 27.6601 17.5747 27.6196 17.1293 27.0667C14.9966 24.4369 12.8774 21.8071 10.7447 19.1773C9.98885 18.2467 9.24646 17.3162 8.49058 16.3856C8.38259 16.2508 8.26111 16.1024 8.12613 15.9541C6.38489 17.4915 4.68414 18.9885 2.9834 20.4854C2.78093 20.6607 2.60545 20.89 2.36249 20.9979C2.10603 21.1193 1.75508 21.2406 1.53911 21.1328C1.30965 21.0249 1.14767 20.6877 1.02619 20.4045C0.945201 20.2292 1.01269 20.0134 1.01269 19.8111C1.01269 17.9905 1.02619 16.1698 1.01269 14.3627C1.01269 13.8233 1.18817 13.4456 1.5931 13.095C3.55031 11.3957 5.48053 9.66951 7.42424 7.95676C8.15313 7.30943 8.49058 7.3364 9.08449 8.07814C11.9461 11.5845 14.8076 15.091 17.6692 18.6108C17.7907 18.7727 17.9257 18.921 18.0876 19.1233C24.9986 14.0121 31.8826 8.91428 38.8071 3.77605V3.76256Z" fill="white"/>
<path d="M39.7928 27.431C39.7928 23.6683 39.7928 19.8922 39.7928 16.1295C39.7928 15.199 40.0223 14.9697 40.9536 14.9697C42.6409 14.9697 44.3281 14.9697 46.0019 14.9697C46.7983 14.9697 47.0682 15.2395 47.0682 16.0351C47.0682 23.6683 47.0682 31.315 47.0682 38.9481C47.0682 39.7438 46.7983 40.0136 46.0019 40.0136C44.2876 40.0136 42.5599 40.0136 40.8456 40.0136C40.0493 40.0136 39.7793 39.7438 39.7793 38.9481C39.7793 35.1181 39.7793 31.2745 39.7793 27.4444L39.7928 27.431Z" fill="white"/>
<path d="M9.07229 31.9756C9.07229 34.2952 9.07229 36.6149 9.07229 38.948C9.07229 39.7436 8.80233 39.9999 8.00595 40.0134C6.29171 40.0134 4.56396 40.0134 2.84972 40.0134C2.05334 40.0134 1.79688 39.7436 1.79688 38.948C1.79688 34.2683 1.79688 29.5886 1.79688 24.9089C1.79688 24.1132 2.06683 23.8569 2.86322 23.8569C4.57746 23.8569 6.3052 23.8569 8.01945 23.8569C8.81583 23.8569 9.07229 24.1267 9.08579 24.9223C9.08579 27.2824 9.08579 29.629 9.08579 31.9891L9.07229 31.9756Z" fill="white"/>
<path d="M34.9473 31.9217C34.9473 34.2548 34.9473 36.6014 34.9473 38.9345C34.9473 39.7302 34.6773 39.9865 33.8809 39.9999C32.1667 39.9999 30.439 39.9999 28.7247 39.9999C27.9283 39.9999 27.6719 39.7302 27.6719 38.9345C27.6719 34.2548 27.6719 29.5751 27.6719 24.8954C27.6719 24.0997 27.9418 23.8435 28.7382 23.8435C30.4525 23.8435 32.1802 23.8435 33.8944 23.8435C34.6908 23.8435 34.9473 24.1132 34.9608 24.9089C34.9608 27.242 34.9608 29.5886 34.9608 31.9217H34.9473Z" fill="white"/>
<path d="M22.002 35.2124C22.002 36.4801 22.002 37.7343 22.002 39.002C22.002 39.7302 21.7185 40.0135 20.9896 40.0135C19.2349 40.0135 17.4802 40.0135 15.7389 40.0135C15.01 40.0135 14.7266 39.7302 14.7266 39.002C14.7266 36.4396 14.7266 33.8907 14.7266 31.3284C14.7266 30.6001 15.01 30.3169 15.7389 30.3169C17.4937 30.3169 19.2484 30.3169 20.9896 30.3169C21.7185 30.3169 22.002 30.6001 22.002 31.3284C22.002 32.623 22.002 33.9177 22.002 35.2124Z" fill="white"/>
</svg>

<svg width="49" height="41" fill="none" xmlns="http://www.w3.org/2000/svg"><path d="M38.807 3.763a224.19 224.19 0 0 0-1.822-1.808c-.31-.296-.486-.62-.297-1.038.162-.391.513-.486.918-.499l9.286-.405c.864-.04 1.148.23 1.107 1.08-.135 3.128-.283 6.257-.418 9.372-.014.405-.149.728-.554.877-.378.135-.688-.014-.958-.283-.837-.85-1.687-1.686-2.551-2.55-2.106 1.579-4.171 3.13-6.25 4.68-6.155 4.613-12.31 9.225-18.465 13.85-.094.068-.189.15-.283.216-.567.405-.945.365-1.39-.188-2.133-2.63-4.253-5.26-6.385-7.89-.756-.93-1.499-1.86-2.254-2.791a8.92 8.92 0 0 0-.365-.432 4334.455 4334.455 0 0 1-5.143 4.531c-.202.176-.378.405-.62.513-.257.121-.608.243-.824.135-.23-.108-.391-.445-.513-.729-.08-.175-.013-.39-.013-.593 0-1.82.013-3.641 0-5.448 0-.54.175-.917.58-1.268 1.957-1.7 3.888-3.425 5.831-5.138.73-.648 1.067-.62 1.66.121 2.862 3.507 5.724 7.013 8.585 10.533.122.162.257.31.419.512a16193.75 16193.75 0 0 0 20.72-15.347v-.013z" fill="#fff"/><path d="M39.793 27.431V16.129c0-.93.23-1.16 1.16-1.16h5.049c.796 0 1.066.27 1.066 1.066v22.913c0 .796-.27 1.066-1.066 1.066h-5.156c-.797 0-1.067-.27-1.067-1.066V27.444l.014-.013zM9.072 31.976v6.972c0 .796-.27 1.052-1.066 1.065H2.85c-.797 0-1.053-.27-1.053-1.065v-14.04c0-.795.27-1.051 1.066-1.051H8.02c.797 0 1.053.27 1.067 1.065v7.067l-.014-.013zM34.947 31.922v7.012c0 .796-.27 1.053-1.066 1.066h-5.156c-.797 0-1.053-.27-1.053-1.066V24.895c0-.795.27-1.052 1.066-1.052h5.156c.797 0 1.053.27 1.067 1.066v7.013h-.014zM22.002 35.212v3.79c0 .728-.284 1.011-1.012 1.011h-5.251c-.729 0-1.012-.283-1.012-1.011v-7.674c0-.728.283-1.011 1.012-1.011h5.25c.73 0 1.013.283 1.013 1.011v3.884z" fill="#fff"/></svg>
